X: 3103
Q:"Strathspey."
M: C
L: 1/8
K: A
uE |\
vC>vEuA>uF E<CA,>uB, | C>EA>B c2(c<f) |\
uc |\
f>ga>g f<c c>^e |
f>ga>g f2(f>^e) |\
[1 f>ga>g f<cc>a | g>ab>g f3 :|\
[2 {A}a>cd>B c>A^E<C | c>BA>G F3 |]


